packages/kaspersky-hexa-ui-icons/src/iconsSVGs/16/PasswordProtected.svg

<svg width="16" height="16" viewBox="0 0 16 16" fill="none" xmlns="http://www.w3.org/2000/svg">
<path d="M8.16108 2.31592C8.05999 2.26344 7.93968 2.26344 7.83859 2.31592L3.57905 4.52693V4.91501C3.2713 4.88979 2.96279 4.94459 2.68421 5.07127C2.55464 5.01203 2.41856 4.96835 2.27905 4.94107V4.13198C2.27905 3.88932 2.41422 3.66687 2.62959 3.55507L7.23967 1.1621C7.71626 0.914717 8.28341 0.914716 8.76 1.1621L13.3701 3.55507C13.5854 3.66687 13.7206 3.88932 13.7206 4.13198V4.94194C13.5783 4.96882 13.4394 5.01274 13.3073 5.07282C13.0313 4.94665 12.7258 4.89109 12.4206 4.91411V4.52693L8.16108 2.31592Z" fill="black"/>
<path d="M4.33579 10.85C4.36933 10.8305 4.40199 10.8102 4.43379 10.7889C5.10201 11.9106 5.92678 12.6463 6.63274 13.1181C7.07292 13.4123 7.46674 13.6036 7.74619 13.7201C7.84126 13.7597 7.9228 13.7906 7.98806 13.8138C8.0536 13.7881 8.13554 13.7543 8.23111 13.7113C8.51007 13.5859 8.90273 13.384 9.34201 13.0829C10.0473 12.5994 10.8683 11.8638 11.5367 10.7801C11.574 10.8057 11.6125 10.83 11.6523 10.8531C12.0362 11.0757 12.4683 11.1405 12.8733 11.0675C12.0579 12.5513 10.9853 13.5326 10.077 14.1551C9.56415 14.5067 9.10198 14.7452 8.76413 14.897C8.59501 14.973 8.45644 15.0276 8.35746 15.0641C8.30795 15.0823 8.26828 15.0959 8.23957 15.1055L8.21727 15.1128L8.20484 15.1168L8.19389 15.1202L8.19006 15.1214L8.18856 15.1219C8.18856 15.1219 8.18734 15.1222 7.99983 14.4999L7.83594 15.1289L7.83363 15.1283L7.82957 15.1272L7.81811 15.1241C7.809 15.1216 7.79698 15.1182 7.78218 15.1138C7.75258 15.1051 7.71186 15.0927 7.66117 15.076C7.55983 15.0425 7.41833 14.9919 7.24592 14.92C6.90148 14.7764 6.43116 14.547 5.91039 14.1989C4.98913 13.5832 3.90938 12.5952 3.09562 11.0609C3.50616 11.1394 3.9458 11.0761 4.33579 10.85Z" fill="black"/>
<path d="M7.83594 15.1289C7.83594 15.1289 7.83656 15.129 7.99983 14.4999L8.18734 15.1222C8.07325 15.1566 7.95128 15.1588 7.83594 15.1289Z" fill="black"/>
<path d="M1.68355 6.27523C1.44465 6.41373 1.36327 6.71967 1.50177 6.95857L1.81519 7.49915L1.19343 7.50028C0.917291 7.50078 0.693839 7.72504 0.694337 8.00118C0.694838 8.27732 0.919101 8.50078 1.19524 8.50028L1.81518 8.49915L1.49957 9.04353C1.36106 9.28242 1.44245 9.58837 1.68134 9.72687C1.92024 9.86538 2.22618 9.78399 2.36468 9.5451L2.68302 8.99602L3.00046 9.54355C3.13896 9.78245 3.44491 9.86383 3.6838 9.72533C3.9227 9.58683 4.00408 9.28088 3.86558 9.04199L3.54904 8.49602L4.18325 8.49487C4.45939 8.49437 4.68284 8.27011 4.68234 7.99396C4.68184 7.71782 4.45758 7.49437 4.18144 7.49487L3.55268 7.49601L3.86337 6.96011C4.00188 6.72121 3.92049 6.41527 3.6816 6.27677C3.4427 6.13826 3.13676 6.21965 2.99825 6.45854L2.68302 7.00227L2.36689 6.457C2.22839 6.21811 1.92245 6.13672 1.68355 6.27523Z" fill="black"/>
<path d="M12.1248 6.96012C11.9863 6.72123 12.0677 6.41529 12.3066 6.27678C12.5455 6.13828 12.8514 6.21966 12.9899 6.45856L13.3061 7.00382L13.6213 6.4601C13.7598 6.2212 14.0657 6.13982 14.3046 6.27832C14.5435 6.41683 14.6249 6.72277 14.4864 6.96167L14.1757 7.49756L14.8045 7.49643C15.0806 7.49593 15.3049 7.71938 15.3054 7.99552C15.3059 8.27166 15.0824 8.49592 14.8063 8.49642L14.1721 8.49757L14.4886 9.04354C14.6271 9.28244 14.5457 9.58838 14.3069 9.72689C14.068 9.86539 13.762 9.78401 13.6235 9.54511L13.3061 8.99758L12.9877 9.54665C12.8492 9.78555 12.5433 9.86693 12.3044 9.72843C12.0655 9.58992 11.9841 9.28398 12.1226 9.04508L12.4382 8.50071L11.8183 8.50183C11.5421 8.50233 11.3179 8.27888 11.3174 8.00274C11.3169 7.7266 11.5403 7.50233 11.8165 7.50183L12.4382 7.50071L12.1248 6.96012Z" fill="black"/>
<path d="M6.8133 6.96165C6.67479 6.72275 6.75618 6.41681 6.99507 6.27831C7.23397 6.1398 7.53991 6.22119 7.67842 6.46008L7.99454 7.00535L8.30978 6.46163C8.44828 6.22273 8.75422 6.14135 8.99312 6.27985C9.23202 6.41835 9.3134 6.7243 9.1749 6.96319L8.8642 7.49909L9.49296 7.49795C9.7691 7.49745 9.99337 7.7209 9.99387 7.99705C9.99437 8.27319 9.77091 8.49745 9.49477 8.49795L8.86057 8.4991L9.1771 9.04507C9.31561 9.28397 9.23422 9.58991 8.99533 9.72841C8.75643 9.86692 8.45049 9.78553 8.31199 9.54664L7.99454 8.9991L7.67621 9.54818C7.5377 9.78707 7.23176 9.86846 6.99287 9.72995C6.75397 9.59145 6.67259 9.28551 6.81109 9.04661L7.1267 8.50224L6.50677 8.50336C6.23062 8.50386 6.00636 8.28041 6.00586 8.00426C6.00536 7.72812 6.22881 7.50386 6.50496 7.50336L7.12671 7.50224L6.8133 6.96165Z" fill="black"/>
</svg>

<svg xmlns="http://www.w3.org/2000/svg" width="16" height="16" fill="none" viewBox="0 0 16 16"><path fill="#000" fill-rule="evenodd" d="M8.161 2.316a.35.35 0 0 0-.3224 0L3.5791 4.527v.3881a1.81 1.81 0 0 0-.8949.1563 1.8 1.8 0 0 0-.4051-.1302V4.132a.65.65 0 0 1 .3505-.577l4.61-2.3929a1.65 1.65 0 0 1 1.5204 0l4.6101 2.393a.65.65 0 0 1 .3505.5769v.81a1.8 1.8 0 0 0-.4133.1308 1.81 1.81 0 0 0-.8867-.1587V4.527zM1.5019 6.9587a.5.5 0 0 1 .8651-.5016l.3161.5453.3153-.5437a.5.5 0 1 1 .865.5015l-.3106.536.6287-.0012a.5.5 0 0 1 .0019 1l-.6343.0011.3166.546a.5.5 0 0 1-.8651.5016L2.683 8.996l-.3183.5491a.5.5 0 1 1-.8651-.5016l.3156-.5443-.62.0011a.5.5 0 1 1-.0018-1l.6218-.0011zm10.623.0015a.5.5 0 0 1 .8651-.5015l.3162.5452.3152-.5437a.5.5 0 1 1 .8651.5016l-.3107.5359.6288-.0012a.5.5 0 0 1 .0018 1l-.6342.0012.3165.546a.5.5 0 1 1-.8651.5015l-.3174-.5475-.3184.549a.5.5 0 1 1-.8651-.5015l.3156-.5444-.6199.0012a.5.5 0 0 1-.0018-1l.6217-.0012zm-5.3115.0016a.5.5 0 0 1 .8651-.5016l.3161.5453.3153-.5438a.5.5 0 1 1 .8651.5016l-.3107.5359.6288-.0011a.5.5 0 1 1 .0018 1l-.6342.0011.3165.546a.5.5 0 1 1-.8651.5016l-.3175-.5476-.3183.5491a.5.5 0 1 1-.8651-.5016l.3156-.5443-.62.001a.5.5 0 1 1-.0017-1l.6217-.001zM4.3358 10.85a2 2 0 0 0 .098-.061c.6682 1.1216 1.493 1.8573 2.199 2.3291.4401.2942.834.4855 1.1134.602.095.0396.1766.0705.2419.0937a5 5 0 0 0 .243-.1025c.279-.1254.6716-.3273 1.111-.6284a7.67 7.67 0 0 0 2.1946-2.3028q.056.0384.1156.073c.384.2226.816.2874 1.221.2145a8.97 8.97 0 0 1-2.7963 3.0876c-.5128.3515-.975.59-1.3129.7418a6.3 6.3 0 0 1-.4066.1671 4 4 0 0 1-.118.0414l-.0222.0073-.0125.004-.0109.0035-.0038.0011-.0015.0005s-.0012.0003-.1745-.5747l.1732.5751a.653.653 0 0 1-.3514.0066s.0007.0001.164-.629l-.164.629-.0023-.0006-.004-.0011-.0115-.0031-.036-.0103a4 4 0 0 1-.121-.0378 6 6 0 0 1-.4152-.156c-.3444-.1436-.8147-.373-1.3355-.7211-.9213-.6157-2.001-1.6036-2.8148-3.138a1.793 1.793 0 0 0 1.2402-.2109"/></svg>
